flaticon/constructions/socket-2.svg

<svg xmlns="http://www.w3.org/2000/svg" width="32" height="32" viewBox="0 0 24 24">
    <path d="M 21.601562 0 L 2.398438 0 C 1.078125 0 0 1.078125 0 2.398438 L 0 21.601562 C 0 22.921875 1.078125 24 2.398438 24 L 21.601562 24 C 22.921875 24 24 22.921875 24 21.601562 L 24 2.398438 C 24 1.078125 22.921875 0 21.601562 0 Z M 23.199219 21.601562 C 23.199219 22.480469 22.480469 23.199219 21.601562 23.199219 L 2.398438 23.199219 C 1.519531 23.199219 0.800781 22.480469 0.800781 21.601562 L 0.800781 2.398438 C 0.800781 1.519531 1.519531 0.800781 2.398438 0.800781 L 21.601562 0.800781 C 22.480469 0.800781 23.199219 1.519531 23.199219 2.398438 Z M 23.199219 21.601562"/>
    <path d="M 21 1.601562 L 3 1.601562 C 2.238281 1.601562 1.601562 2.238281 1.601562 3 L 1.601562 21 C 1.601562 21.761719 2.238281 22.398438 3 22.398438 L 21 22.398438 C 21.761719 22.398438 22.398438 21.761719 22.398438 21 L 22.398438 3 C 22.398438 2.238281 21.761719 1.601562 21 1.601562 Z M 21.601562 21 C 21.601562 21.320312 21.320312 21.601562 21 21.601562 L 3 21.601562 C 2.679688 21.601562 2.398438 21.320312 2.398438 21 L 2.398438 3 C 2.398438 2.679688 2.679688 2.398438 3 2.398438 L 21 2.398438 C 21.320312 2.398438 21.601562 2.679688 21.601562 3 Z M 21.601562 21"/>
    <path d="M 17.601562 6 L 6.398438 6 C 6.160156 6 6 6.160156 6 6.398438 L 6 17.601562 C 6 17.839844 6.160156 18 6.398438 18 L 17.601562 18 C 17.839844 18 18 17.839844 18 17.601562 L 18 6.398438 C 18 6.160156 17.839844 6 17.601562 6 Z M 17.199219 17.199219 L 6.800781 17.199219 L 6.800781 6.800781 L 17.199219 6.800781 Z M 17.199219 17.199219"/>
    <path d="M9.199219 11.199219L10.800781 11.199219C11.039062 11.199219 11.199219 11.039062 11.199219 10.800781L11.199219 8.398438C11.199219 8.160156 11.039062 8 10.800781 8L9.199219 8C8.960938 8 8.800781 8.160156 8.800781 8.398438L8.800781 10.800781C8.800781 11.039062 8.960938 11.199219 9.199219 11.199219zM9.601562 8.800781L10.398438 8.800781 10.398438 10.398438 9.601562 10.398438zM13.199219 11.199219L14.800781 11.199219C15.039062 11.199219 15.199219 11.039062 15.199219 10.800781L15.199219 8.398438C15.199219 8.160156 15.039062 8 14.800781 8L13.199219 8C12.960938 8 12.800781 8.160156 12.800781 8.398438L12.800781 10.800781C12.800781 11.039062 12.960938 11.199219 13.199219 11.199219zM13.601562 8.800781L14.398438 8.800781 14.398438 10.398438 13.601562 10.398438zM10.800781 14L10.800781 15.601562C10.800781 15.839844 10.960938 16 11.199219 16L12.800781 16C13.039062 16 13.199219 15.839844 13.199219 15.601562L13.199219 14C13.199219 13.320312 12.679688 12.800781 12 12.800781 11.320312 12.800781 10.800781 13.320312 10.800781 14zM11.601562 14C11.601562 13.761719 11.761719 13.601562 12 13.601562 12.238281 13.601562 12.398438 13.761719 12.398438 14L12.398438 15.199219 11.601562 15.199219zM11.601562 14"/>
</svg>

<svg xmlns="http://www.w3.org/2000/svg" width="32" height="32" viewBox="0 0 24 24">
    <path d="M21.602 0H2.398A2.404 2.404 0 0 0 0 2.398v19.204A2.404 2.404 0 0 0 2.398 24h19.204A2.404 2.404 0 0 0 24 21.602V2.398A2.404 2.404 0 0 0 21.602 0zm1.597 21.602c0 .878-.719 1.597-1.597 1.597H2.398a1.602 1.602 0 0 1-1.597-1.597V2.398C.8 1.52 1.52.801 2.398.801h19.204c.878 0 1.597.719 1.597 1.597zm0 0"/>
    <path d="M21 1.602H3c-.762 0-1.398.636-1.398 1.398v18c0 .762.636 1.398 1.398 1.398h18c.762 0 1.398-.636 1.398-1.398V3c0-.762-.636-1.398-1.398-1.398zM21.602 21c0 .32-.282.602-.602.602H3A.618.618 0 0 1 2.398 21V3c0-.32.282-.602.602-.602h18c.32 0 .602.282.602.602zm0 0"/>
    <path d="M17.602 6H6.398C6.16 6 6 6.16 6 6.398v11.204c0 .238.16.398.398.398h11.204c.238 0 .398-.16.398-.398V6.398C18 6.16 17.84 6 17.602 6zm-.403 11.2H6.801V6.8h10.398zm0 0"/>
    <path d="M9.2 11.2h1.6c.24 0 .4-.16.4-.4V8.399c0-.238-.16-.398-.4-.398H9.2c-.24 0-.4.16-.4.398v2.403c0 .238.16.398.4.398zm.402-2.4h.796v1.598h-.796zm0 0M13.2 11.2h1.6c.24 0 .4-.16.4-.4V8.399c0-.238-.16-.398-.4-.398h-1.6c-.24 0-.4.16-.4.398v2.403c0 .238.16.398.4.398zm.402-2.4h.796v1.598h-.796zm0 0M10.8 14v1.602c0 .238.16.398.4.398h1.6c.24 0 .4-.16.4-.398V14c0-.68-.52-1.2-1.2-1.2-.68 0-1.2.52-1.2 1.2zm.802 0c0-.238.16-.398.398-.398.238 0 .398.16.398.398v1.2h-.796zm0 0"/>
</svg>
